resources/svg/hourglass-o.svg

<svg width="15" height="15" viewBox="0 0 15 15" fill="none" xmlns="http://www.w3.org/2000/svg">
<path d="M3.5 0V4.67157C3.5 5.20201 3.71071 5.71071 4.08579 6.08579L4.79289 6.79289C5.18342 7.18342 5.18342 7.81658 4.79289 8.20711L3.79289 9.20711C3.60536 9.39464 3.5 9.649 3.5 9.91421V15M11.5 0V5.08579C11.5 5.351 11.3946 5.60536 11.2071 5.79289L10.2071 6.79289C9.81658 7.18342 9.81658 7.81658 10.2071 8.20711L11.2071 9.20711C11.3946 9.39464 11.5 9.649 11.5 9.91421V15M1 0.5H14M1 14.5H14" stroke="black"/>
</svg>

<svg viewBox="0 0 15 15" fill="none" xmlns="http://www.w3.org/2000/svg" fill="currentColor"><path d="M3.5 0v4.672a2 2 0 00.586 1.414l.707.707a1 1 0 010 1.414l-1 1a1 1 0 00-.293.707V15m8-15v5.086a1 1 0 01-.293.707l-1 1a1 1 0 000 1.414l1 1a1 1 0 01.293.707V15M1 .5h13m-13 14h13" stroke="currentColor"/></svg>
